X:1
T:Title
%%score { 1 | 2 }
L:1/8
M:3/4
K:G
V:1 treble nm="Grand Piano"
V:2 bass 
V:1
 z2 z2[Q:1/4=100] [B,D][B,G] | [DB][B,G] [Ec]2 [DB]2 | [EA]2 [CE]3 [EG] | GF E2 F2 | %4
 [B,G]4 [B,D][B,G] | [DB][B,G] [Ec]2 [DB]2 | [EA]2 [CE]3 [EG] | GF E2 F2 | [B,G]6 | %9
 [DB][B,D] [Ec]2 [DB]2 | B2 A4 | AD B2 A2 | [B,G]6 | [EG][EG] [DF]2 [CE]2 | [B,D][B,G] [DB]4 | %15
 A^G A2 B2 |[M:2/4] [B,G]4 |] %17
V:2
 z2 z2 [G,,G,][G,,G,] | [G,,G,][G,,G,] [G,,G,]2 [G,,G,]2 | [C,G,]2 [C,G,]3 [C,C] | %3
 [D,B,D][D,A,D] [D,G,C]2 [D,A,C]2 | [G,,G,]4 [G,,G,][G,,G,] | [G,,G,][G,,G,] [G,,G,]2 [G,,G,]2 | %6
 [C,G,]2 [C,G,]3 [C,C] | [D,B,D][D,A,D] [D,G,C]2 [D,A,C]2 | [G,,G,]6 | %9
 [G,,G,][G,,G,] [G,,G,]2 [G,,G,]2 | [D,G,D]2 [D,F,C]4 | [D,F,C][D,F,C] [D,G,D]2 [D,F,C]2 | %12
 [G,,G,]6 | [C,G,][C,G,] [C,G,]2 [C,G,]2 | [G,,G,][G,,G,] [G,,G,]4 | %15
 [D,F,C][D,=F,C] [D,^F,C]2 [D,F,D]2 |[M:2/4] [G,,G,]4 |] %17

